X:1
T:Ne luy monstrant
T:Ne luy monstrant
T:Tielman Susato
C:Tielman Susato
%%score [ 1 [ 2 3 ] 4 ]
L:1/8
Q:1/4=76
M:2/2
K:C
V:1 treble nm="Superius" snm="S"
V:2 treble-8 nm="Tenor 1" snm="T 1"
V:3 treble-8 nm="Tenor 2" snm="T 2"
V:4 bass nm="Bass" snm="B"
V:1
 z8 | z8 | z8 | z8 | G8 | A4 c3 B | AG A3 G c2- | c2 BA B2 B2 | B2 B2 c2 c2 | A2 z A A2 A2 | %10
w: ||||Ne|luy mon- *||* * * strant que|tout- te cru- aul-|té, que tout- te|
 B4 B4 | G4 z4 | z2 c2 d3 c | B2 A3 G c2- | c2 B2 c4 | z2 G2 A4 | F4 G2 G2 | G2 c3 B A2- | %18
w: cru- aul-|té,|que tout- te|cru- aul- * *|* * té,|l'on peult|bien veoir que|sa des- loy- aul-|
 AG E2 F4 | E8 | D4 z2 C2 | G8 | F2 E2 z2 E2 | E2 E2 D2 E2 | A4 G4 | z2 B2 B2 B2 | A2 B2 c2 BA | %27
w: ||té, par|grant|rai- son me|con- trainct es- tre|tel- le,|me con- traint|es- tre tel- * *|
 G4 z4 | z4 z2 G2 | A2 A2 B2 B2 | c4 B4 | z2 G2 B2 d2- | dcBA G2 c2- | c2 B2 c4 | z2 G2 E2 A2 | %35
w: le,|car|il deb- vroit mieulx|m'ay- mer|sans cau- tel-||* * le,|pour es- tr'ay-|
 G4 z2 G2 | A2 B2 c2 G2 | c4 B2 A2 | G3 F/E/ D2 C2- | C2 G2 A4- | A2 B2 c2 G2 | c3 B A2 d2- | %42
w: mé, pour|es- tr'ay- mé par|gran- de loy-|aul- * * * té,|_ pour es-|* tr'ay- mé par|gran- de loy- aul-|
 dc c4 B2 | c2 G2 A4- | A2 G2 F2 F2 | E8 |] %46
w: |té, par gran-|* de loy- aul-|té.|
V:2
 z8 | z8 | z8 | z8 | z8 | c8 | d4 f4 | e2 d2 d2 d2 | e2 e2 c2 e2 | f2 f2 edef | g4 z2 d2 | %11
w: |||||Ne|luy mon-|strant que tout- te|cru- aul- té, ne|luy mon- strant _ _ _|_ que|
 g3 f e4 | f2 c2 f2 g2- | g2 e2 f4 | g4 e4 | e4 c2 c2 | d4 B2 B2 | e3 d c2 d2- | dc c4 B2 | %19
w: tout- te cru-|aul- * * *||* té,|l'on peult bien|veoir que sa|des- loy- aul- *||
 c2 G2 c4 | B4 ABcd | e8 | z4 z2 G2 | c4 B4 | ABcd e2 e2 | e2 e2 d2 e2 | f2 ed cdef | g2 G2 A2 A2 | %28
w: té par grant|rai- son _ _ _|_|par-|grant rai-|son _ _ _ _ me|con- trainct es- tre|tel- * * * * * *|le, car il deb-|
 B2 B2 c2 B2 | z2 c2 e2 gf | ed e4 d2 | e4 z4 | z2 c2 e2 g2- | gf d2 e2 f2 | g4 z2 d2 | %35
w: vroit mieulx m'ay- mer,|sans cau- tel- *||le,|sans cau- tel-||le, pour|
 B2 e2 d2 c2 | f4 e4- | e2 c2 d2 e2 | c2 e2 f2 g2 | c4 c4 | f4 e2 cB | AG A2 D2 d2 | e2 f2 g2 G2- | %43
w: es- tr'ay- mé, pour|es- tr'ay-|* mé par gran-|de loy- aul- *|té, pour|es- tr'ay- * *|* * mé par gran-|de loy aul- té,|
 G2 cB AG d2- | dc c4 B2 | c8 |] %46
w: _ par _ _ _ gran-|* de loy- aul-|té.|
V:3
 G8 | A4 c3 B | AG A3 G c2- | c2 BA B2 B2 | B2 B2 c2 c2 | A8 | z8 | z8 | z8 | z2 c2 c2 c2 | %10
w: Ne|luy mon- *|* * strant _ _|_ _ _ _ que|tout- te cru- aul-|té,||||que tout- te|
 d2 d2 B2 d2 | e3 d c2 B2 | A4 z2 d2 | e4 d2 c2 | d4 c2 G2 | c4 A4 | _B4 G2 G2 | c3 B A3 G | %18
w: cru- aul- té, que|tout- te cru- aul-|té, que|tout- te cru-|aul- té; l'on|peult bien|veoir que sa|des- loy- aul- *|
 F2 G4 F2 | G8 | z2 G2 d2 c2- | c2 BA B2 B2 | B2 B2 A2 B2 | c2 G2 z2 A2 | d2 c4 BA | B4 z4 | %26
w: |té|par grant rai-|* * * son me|con- trainct es- tre|tel- le, par|grant rai- * *|son|
 z2 e2 e2 e2 | d2 e2 f2 e2 | d4 z4 | z4 z2 G2 | A2 A2 B2 B2 | c4 B2 G2 | B2 e4 dc | d4 c4 | z8 | %35
w: me con- trainct|es- tre tel- *|le,|car|il deb- vroit mieulx|m'ay- mer sans|cau- tel- * *|* le,||
 G2 E2 A2 G2 | z4 z2 G2- | G2 A2 B2 c2 | G2 c2 B2 G2 | A2 G2 z2 c2 | d4 e4 | f2 c2 f4 | e2 c2 d4 | %43
w: pour es- tr'ay- mé,|pour|_ es- tr'ay- mé|par gran- de loy-|aul- té, pour|es- tr'ay-|mé par gran-|de loy- aul-|
 c4 z2 A2 | F2 G2 A2 F2 | G8 |] %46
w: té, par|gran- de loy- aul-|té.|
V:4
 z8 | C,8 | D,4 F,4 | E,2 D,2 D,2 D,2 | E,2 E,2 C,2 C,2 | F,3 G, A,4 | D,2 F,2 F,2 F,2 | G,4 G,4 | %8
w: |Ne|luy mon-|strant que tout- te|cru- aul- té, ne|luy mon- *|strant que tout- te|cru- aul-|
 E,4 z2 C,2 | F,4 A,4 | G,8 | z2 G,2 A,2 G,2 | F,2 F,2 D,2 G,2- | G,2 A,2 F,2 A,2 | G,4 C,4 | %15
w: té, ne|luy mon-|strant|que tout- te|cru- aul- té, que|_ tout- te cru-|aul- té,|
 C,4 F,4 | D,4 E,4 | C,2 C,2 F,4- | F,2 E,2 D,4 | C,4 z2 C,2 | G,4 F,4 | E,2 E,2 E,2 E,2 | %22
w: l'on peult|bien veoir|que sa des-|* loy- aul-|té par|grant rai-|son me con- trainct|
 D,2 E,2 A,2 G,2 | z2 C,2 G,4 | F,4 E,4- | E,2 G,2 G,2 G,2 | F,2 G,2 A,2 G,2- | G,F, E,2 D,2 C,2 | %28
w: es- tre tel- le,|par grant|rai- son|_ me con- trainct|es- tre tel- *|* * * te, car|
 D,2 D,2 E,2 E,2 | F,4 E,4 | z2 C,2 E,2 G,2 | C,4 z4 | z8 | G,4 E,2 A,2 | G,2 C,2 C,2 D,2 | %35
w: il deb- vroit mieulx|m'ay- mer,|sans cau- tel-|le,||pour es- tr'ay-|mé, pour es- tr'ay-|
 E,2 C,2 F,2 E,2 | D,2 D,2 C,4- | C,4 z4 | C,4 D,2 E,2 | F,2 C,2 F,3 E, | D,2 D,2 C,4 | %41
w: mé par gran- de|loy- aul- té,|_|pour- es- tr'ay-|mé par gran- de|loy- aul- té,|
 z2 F,4 D,2 | A,4 G,4 | C,4 F,4- | F,2 E,2 D,2 D,2 | C,8 |] %46
w: pour es-|tr'ay- mé|par gran-|* de loy- aul-|té.|

